images/LOGOS_CLIENTES/SANTANDER.svg

<svg width="109" height="19" viewBox="0 0 109 19" fill="none" xmlns="http://www.w3.org/2000/svg">
<path d="M14.4124 8.74014C14.3666 8.05374 14.1836 7.36734 13.8175 6.77246L10.7059 1.32704C10.4771 0.915197 10.294 0.457599 10.2025 0L10.0652 0.228799C9.2873 1.55584 9.2873 3.24895 10.0652 4.57599L12.582 8.92317C13.3599 10.2502 13.3599 11.9433 12.582 13.2704L12.4447 13.4992C12.3532 13.0416 12.1702 12.584 11.9414 12.1721L9.65338 8.19102L8.18906 5.62846C7.96026 5.21663 7.77722 4.75903 7.6857 4.30143L7.54842 4.53023C6.77051 5.85726 6.77051 7.50462 7.54842 8.87741L10.0652 13.2246C10.8431 14.5516 10.8431 16.2448 10.0652 17.5718L9.92794 17.8006C9.83642 17.343 9.65338 16.8854 9.42458 16.4736L6.26715 11.0281C5.85531 10.296 5.67227 9.47229 5.67227 8.64861C2.3318 9.51805 -0.00195312 11.3942 -0.00195312 13.5449C-0.00195312 16.5651 4.48251 18.9903 10.0195 18.9903C15.5564 18.9903 20.0409 16.5651 20.0409 13.5449C20.0866 11.4857 17.7986 9.60957 14.4124 8.74014ZM23.8847 18.0294C23.9305 17.2515 24.022 16.7481 24.2508 16.1075C25.3033 16.6108 26.676 16.8396 27.6828 16.8396C29.4216 16.8396 30.4284 16.2905 30.4284 15.1465C30.4284 14.0483 29.6962 13.5449 27.9573 12.767L26.9964 12.4009C25.2117 11.623 24.022 10.6163 24.022 8.64861C24.022 6.4979 25.5321 5.12511 28.5522 5.12511C29.7877 5.12511 30.9317 5.30815 31.9842 5.67422C31.9384 6.40638 31.8012 7.00126 31.6181 7.55038C30.6114 7.1843 29.3759 7.00126 28.5064 7.00126C26.8591 7.00126 26.1269 7.6419 26.1269 8.64861C26.1269 9.60957 26.8591 10.2045 28.1861 10.7536L29.1928 11.1654C31.5724 12.1721 32.5791 13.2704 32.5791 15.1008C32.5791 17.2515 30.9317 18.7615 27.7285 18.7615C26.2184 18.7615 24.9372 18.5327 23.8847 18.0294ZM42.692 9.01469V18.4412H40.7701L40.6786 17.2972C40.1294 18.1209 39.3515 18.67 38.0245 18.67C35.5535 18.67 33.8603 16.8396 33.8603 13.6822C33.8603 10.3875 35.645 8.46558 39.1227 8.46558C40.4955 8.51134 41.6395 8.64862 42.692 9.01469ZM40.6328 16.2905V10.3875C40.221 10.296 39.7176 10.296 39.1227 10.296C36.972 10.296 35.9653 11.623 35.9653 13.728C35.9653 15.6499 36.7432 17.0227 38.5736 17.0227C39.4431 16.9769 40.0837 16.7024 40.6328 16.2905ZM53.3083 12.1264V18.4412H51.2491V12.4924C51.2491 10.9824 50.7457 10.296 48.6865 10.296C48.1832 10.296 47.6341 10.3417 47.0392 10.4333V18.4412H44.98V9.01469C46.307 8.69438 47.7713 8.46558 48.7323 8.46558C52.2101 8.51134 53.3083 9.83837 53.3083 12.1264ZM59.074 16.9312C59.6689 16.9312 60.2638 16.8396 60.6756 16.6566C60.6299 17.2057 60.5384 17.8463 60.4468 18.3955C59.8977 18.6243 59.2571 18.7158 58.708 18.7158C56.6945 18.7158 55.4132 17.8006 55.4132 15.5126V5.5827C56.0539 5.35391 56.8318 5.26238 57.4724 5.26238V8.83166H60.7672C60.7214 9.47229 60.6756 10.0672 60.5841 10.6163H57.4724V15.238C57.4724 16.4278 58.0673 16.9312 59.074 16.9312ZM70.1937 9.01469V18.4412H68.2718L68.1802 17.2972C67.6311 18.1209 66.8532 18.67 65.5262 18.67C63.0551 18.67 61.362 16.8396 61.362 13.6822C61.362 10.3875 63.1467 8.46558 66.6244 8.46558C67.9972 8.51134 69.0954 8.64862 70.1937 9.01469ZM68.0887 16.2905V10.3875C67.6769 10.296 67.1735 10.296 66.5787 10.296C64.4279 10.296 63.4212 11.623 63.4212 13.728C63.4212 15.6499 64.1991 17.0227 66.0295 17.0227C66.899 16.9769 67.5854 16.7024 68.0887 16.2905ZM80.81 12.1264V18.4412H78.705V12.4924C78.705 10.9824 78.2017 10.296 76.1425 10.296C75.6391 10.296 75.09 10.3417 74.4951 10.4333V18.4412H72.4359V9.01469C73.763 8.69438 75.2273 8.46558 76.1882 8.46558C79.666 8.51134 80.81 9.83837 80.81 12.1264ZM91.289 5.26238V18.4412H89.3671L89.2756 17.2515C88.7264 18.1209 87.9485 18.67 86.5757 18.67C84.1047 18.67 82.4116 16.8396 82.4116 13.6822C82.4116 10.3875 84.1962 8.46558 87.674 8.46558C88.2231 8.46558 88.7264 8.51134 89.2298 8.60286V5.49118C89.8704 5.30814 90.6026 5.26238 91.289 5.26238ZM89.2298 16.2905V10.479C88.6807 10.3875 88.1315 10.296 87.5824 10.296C85.5232 10.296 84.5623 11.5772 84.5623 13.728C84.5623 15.6499 85.3402 17.0227 87.1706 17.0227C87.9943 16.9769 88.6807 16.7024 89.2298 16.2905ZM101.722 14.4144H95.0871C95.3616 16.1075 96.3226 16.8854 98.1987 16.8854C99.3427 16.8854 100.487 16.6566 101.493 16.1532C101.402 16.7024 101.31 17.4345 101.173 18.0294C100.212 18.4412 99.2512 18.6243 98.1072 18.6243C94.6294 18.6243 92.9821 16.7024 92.9821 13.4992C92.9821 10.7078 94.2634 8.46558 97.5581 8.46558C100.532 8.46558 101.814 10.3875 101.814 12.767C101.814 13.4076 101.814 13.8652 101.722 14.4144ZM95.0871 12.6755H99.7546C99.7546 11.1196 98.9309 10.2045 97.5123 10.2045C96.0023 10.2502 95.2243 11.0739 95.0871 12.6755ZM108.998 8.60286C108.998 9.24349 108.907 9.97565 108.815 10.3875C108.312 10.3417 107.854 10.296 107.259 10.296C106.756 10.296 106.252 10.3417 105.749 10.3875V18.4412H103.69V9.01469C104.559 8.69438 106.069 8.46558 107.213 8.46558C107.808 8.51134 108.54 8.51134 108.998 8.60286Z" fill="black"/>
</svg>

<svg width="109" height="19" fill="none" xmlns="http://www.w3.org/2000/svg"><path d="M14.412 8.74c-.045-.686-.228-1.373-.595-1.968l-3.111-5.445A4.67 4.67 0 0 1 10.203 0l-.138.229a4.34 4.34 0 0 0 0 4.347l2.517 4.347a4.34 4.34 0 0 1 0 4.347l-.137.23a4.671 4.671 0 0 0-.504-1.328L9.653 8.191 8.19 5.628a4.671 4.671 0 0 1-.503-1.327l-.138.23c-.777 1.326-.777 2.974 0 4.346l2.517 4.348a4.34 4.34 0 0 1 0 4.347l-.137.229a4.67 4.67 0 0 0-.503-1.327l-3.158-5.446c-.412-.732-.595-1.556-.595-2.38-3.34.87-5.674 2.746-5.674 4.897 0 3.02 4.485 5.445 10.022 5.445 5.536 0 10.02-2.425 10.02-5.445.047-2.06-2.241-3.935-5.628-4.805Zm9.473 9.29c.045-.779.137-1.282.366-1.922 1.052.503 2.425.732 3.432.732 1.739 0 2.745-.55 2.745-1.694 0-1.098-.732-1.601-2.47-2.379l-.962-.366c-1.784-.778-2.974-1.785-2.974-3.752 0-2.151 1.51-3.524 4.53-3.524 1.236 0 2.38.183 3.432.55a7.179 7.179 0 0 1-.366 1.875 9.927 9.927 0 0 0-3.112-.549c-1.647 0-2.38.64-2.38 1.648 0 .96.733 1.556 2.06 2.105l1.007.411c2.38 1.007 3.386 2.105 3.386 3.936 0 2.15-1.647 3.66-4.85 3.66-1.51 0-2.792-.228-3.844-.732Zm18.807-9.015v9.426H40.77l-.091-1.144c-.55.824-1.328 1.373-2.654 1.373-2.471 0-4.165-1.83-4.165-4.988 0-3.295 1.785-5.216 5.263-5.216 1.373.045 2.517.183 3.569.549Zm-2.06 7.276v-5.904c-.411-.091-.914-.091-1.51-.091-2.15 0-3.157 1.327-3.157 3.432 0 1.922.778 3.295 2.609 3.295.87-.046 1.51-.32 2.059-.732Zm12.676-4.165v6.315H51.25v-5.949c0-1.51-.503-2.196-2.563-2.196-.503 0-1.052.046-1.647.137v8.008H44.98V9.015c1.327-.32 2.791-.55 3.752-.55 3.478.046 4.576 1.373 4.576 3.661Zm5.766 4.805c.595 0 1.19-.091 1.602-.274-.046.549-.138 1.19-.23 1.738-.548.23-1.189.32-1.738.32-2.014 0-3.295-.914-3.295-3.202v-9.93c.64-.23 1.419-.32 2.06-.32v3.569h3.294c-.046.64-.091 1.235-.183 1.784h-3.112v4.622c0 1.19.595 1.693 1.602 1.693Zm11.12-7.916v9.426h-1.922l-.092-1.144c-.549.824-1.327 1.373-2.654 1.373-2.47 0-4.164-1.83-4.164-4.988 0-3.295 1.785-5.216 5.262-5.216 1.373.045 2.471.183 3.57.549Zm-2.105 7.276v-5.904c-.412-.091-.915-.091-1.51-.091-2.151 0-3.158 1.327-3.158 3.432 0 1.922.778 3.295 2.608 3.295.87-.046 1.556-.32 2.06-.732Zm12.721-4.165v6.315h-2.105v-5.949c0-1.51-.503-2.196-2.563-2.196-.503 0-1.052.046-1.647.137v8.008h-2.06V9.015c1.328-.32 2.792-.55 3.753-.55 3.478.046 4.622 1.373 4.622 3.661Zm10.479-6.864v13.18h-1.922l-.091-1.19c-.55.869-1.328 1.418-2.7 1.418-2.471 0-4.164-1.83-4.164-4.988 0-3.295 1.784-5.216 5.262-5.216.55 0 1.052.045 1.556.137V5.49c.64-.183 1.373-.229 2.059-.229Zm-2.06 11.029v-5.812c-.548-.091-1.097-.183-1.647-.183-2.059 0-3.02 1.281-3.02 3.432 0 1.922.778 3.295 2.609 3.295a3.718 3.718 0 0 0 2.059-.732Zm12.493-1.877h-6.635c.275 1.694 1.236 2.471 3.112 2.471 1.144 0 2.288-.228 3.294-.732-.091.55-.183 1.282-.32 1.876-.961.412-1.922.595-3.066.595-3.478 0-5.125-1.922-5.125-5.125 0-2.791 1.281-5.033 4.576-5.033 2.974 0 4.256 1.921 4.256 4.301 0 .64 0 1.098-.092 1.647Zm-6.635-1.739h4.668c0-1.555-.824-2.47-2.243-2.47-1.51.045-2.288.869-2.425 2.47Zm13.911-4.072c0 .64-.091 1.373-.183 1.784-.503-.045-.961-.091-1.556-.091-.503 0-1.007.046-1.51.091v8.054h-2.059V9.015c.869-.32 2.379-.55 3.523-.55.595.046 1.327.046 1.785.138Z" fill="#000"/></svg>
